!!!!SEGMENT: pl-kk--kk-i-476--001_studzinski-wincenty--msza-kirie.krn
!!!id: 18xx:1372
!!!COM: Studziński, Wincenty
!!!COM-rism: pe41023091
!!!CDT: 1815/03/30-1854/07/15
!!!CNT: Polish
!!!OTL: Msza – Kirie
!!!PDT:
!!!SMS-siglum: PL-Kk
!!!SMS-shelfmark: Kk.I.476
!!!NIFC-rismID: 1001140245
!!!URL-scan: http://repozytorium.nifc.pl/skany/pl-kk-nut--i-476
!!!ONB-nifc: UWAGA: części Mszy: 1. Kirie, 2. Gloria, 3. Credo, 4. Sanctus, 5. Benedictus, 6. Agnus
!!!SMS-variant:
!!!SMS-altvar:
**kern	**text	**kern	**kern	**text	**dynam	**kern	**text	**dynam	**kern	**text	**dynam	**kern	**text
*part6	*part6	*part5	*part4	*part4	*part4	*part3	*part3	*part3	*part2	*part2	*part2	*part1	*part1
*staff6	*staff6	*staff5	*staff4	*staff4	*	*staff3	*staff3	*	*staff2	*staff2	*	*staff1	*staff1
*	*	*	*I"Basſo	*	*	*I"Tenor	*	*	*I"Alto	*	*	*I"Soprano	*
*	*	*	*I'B	*	*	*I'T	*	*	*I'A	*	*	*I'S	*
*clefF4	*	*clefG2	*clefF4	*	*	*clefC4	*	*	*clefC3	*	*	*clefG2	*
*k[b-]	*	*k[b-]	*k[b-]	*	*	*k[b-]	*	*	*k[b-]	*	*	*k[b-]	*
*M4/4	*	*M4/4	*M4/4	*	*	*M4/4	*	*	*M4/4	*	*	*M4/4	*
*met(c)	*	*met(c)	*met(c)	*	*	*met(c)	*	*	*met(c)	*	*	*met(c)	*
=1	=1	=1	=1	=1	=1	=1	=1	=1	=1	=1	=1	=1	=1
*^	*	*^	*	*	*	*	*	*	*	*	*	*	*
!	!	!	!	!	!	!	!	!LO:TX:a:t=1	!	!	!	!	!	!LO:TX:a:t=3	!
!	!	!	!LO:TX:a:t=Kirie	!	!LO:TX:a:t=Kyrie	!	!	!LO:TX:a:t=Kyrie	!	!	!LO:TX:rj:a:t=Kyrie Mod(era)to	!	!	!LO:TX:b:t=Kirie	!
!LO:TX:a:t=Masz na 4ry Głosy	!	!	!LO:TX:rj:a:t=Mod(era)to	!	!LO:TX:rj:a:t=Mod(era)to	!	!LO:DY:a	!LO:TX:rj:a:t=Mod(era)to	!	!	!LO:TX:a:t=2	!	!	!LO:TX:rj:a:t=Mod(era)to	!
1r	4.F\	Ki-	1re	1rdd	4.F\	Ky-	p	1r	.	.	0r	.	.	0r	.
.	8F\	-ri-	.	.	8F\	-ri-	.	.	.	.	.	.	.	.	.
.	4F\	-e	.	.	4F\	-e	.	.	.	.	.	.	.	.	.
.	4F\	e-	.	.	4F\	e-	.	.	.	.	.	.	.	.	.
=2	=2	=2	=2	=2	=2	=2	=2	=2	=2	=2	=2	=2	=2	=2	=2
*	*2\right	*	*	*	*2\right	*	*	*	*	*	*	*	*	*	*
!LO:TX:t=P:problem:2\right:global	!	!	!	!	!LO:TX:t=P:problem:2\right:global	!	!	!LO:TX:t=P:problem:all\right:global	!	!LO:DY:a	!	!	!	!	!
4.c/	2F\	-lej-	1rf	1rdd	2F\	-lej-	.	4.c\	Ky-	p	.	.	.	.	.
8c/	.	.	.	.	.	.	.	8c\	-ri-	.	.	.	.	.	.
4c/	4E\	-son	.	.	4E\	-son	.	4c\	-e	.	.	.	.	.	.
4c/	4E-X\	e-	.	.	4E-X\	e-	.	4c\	e-	.	.	.	.	.	.
=3	=3	=3	=3	=3	=3	=3	=3	=3	=3	=3	=3	=3	=3	=3	=3
*	*	*	*	*	*	*	*	*2\right	*	*	*	*	*	*	*
!	!	!	!	!	!	!	!	!	!	!	!LO:TX:t=P:problem:all\right:global	!	!	!	!
2A\	2D\	-lei-	1r	4.f\	(2D\	-lej-	.	2A\	-lej-	.	4.f\	Ky-	p	1r	.
.	.	.	.	8f\	.	.	.	.	.	.	8f\	-ri-	.	.	.
4Bn/	2G\	.	.	4f\	2G\)	.	.	4Bn\	-son	.	4f\	-e	.	.	.
4B/	.	.	.	4f\	.	.	.	4B\	e-	.	4f\	e-	.	.	.
=4	=4	=4	=4	=4	=4	=4	=4	=4	=4	=4	=4	=4	=4	=4	=4
!	!	!	!LO:TX:t=P:problem:t. 4 zapisany według odnośnika do taktu na dole skanu nr 21	!	!	!	!	!	!	!	!	!	!	!	!
!	!	!	!LO:TX:a:t=1.	!	!	!	!	!	!	!	!	!	!	!LO:TX:t=P:problem:all\right:global	!
4Bn/	4C\	-son	4.cc/	4f\	4C/	-son	.	4Bn\	-lej-	.	4f\	-lej-	.	4.cc\	Ky-
4c/	4r	.	.	4e\	4r	.	.	4c\	-son	.	4e\	-son	.	.	.
.	.	.	8cc/	.	.	.	.	.	.	.	.	.	.	8cc\	-ri-
!LO:TX:t=P:problem:słowa wg. t. 4 z pierwszego systemu	!	!	!	!	!	!	!	!	!	!	!	!	!	!	!
4rc	4B-y\	.	4cc/	4r	4.B-\	Ky-	.	4r	.	.	4r	.	.	4cc\	-e
4ryy	8c\LL	.	4cc/	8e\	.	.	.	8c\	Ky-	.	8e\	Ky-	.	4cc\	e-
.	16B-\J	-ri-	.	8e\	8B-\	-ri-	.	8c\	-ri-	.	8e\	-ri-	.	.	.
.	16B-\J	.	.	.	.	.	.	.	.	.	.	.	.	.	.
=5	=5	=5	=5	=5	=5	=5	=5	=5	=5	=5	=5	=5	=5	=5	=5
*	*	*	*	*2\right	*	*	*	*	*	*	*2\right	*	*	*2\right	*
4c/	4A\	-e	2cc/	2f\	(4A\	-e	.	(4c\	-e	.	2f\	-e	.	2cc\	-le-
4A/	4F\	.	.	.	4F\	.	.	4A\	.	.	.	.	.	.	.
4B-/	4G\	.	4ff/	2f\	4G\	.	.	4B-X\)	.	.	2f\	e-	.	4ff\	.
4c/	4A\	e-	4ee/	.	4A\)	e-	.	4c\	e-	.	.	.	.	4ee\	.
!	!	!	!	!	!LO:LB:g=original	!	!	!LO:LB:g=original	!	!	!	!	!	!	!
=6	=6	=6	=6	=6	=6	=6	=6	=6	=6	=6	=6	=6	=6	=6	=6
2B-/	2B-\	-lej-	4ee/	2f\	2B-\	-lej-	.	2B-\	-lej-	.	2f\	-lej-	.	4ee\	.
.	.	.	4dd/	.	.	.	.	.	.	.	.	.	.	4dd\	-i-
2A/	2F\	-son	2cc/	2f\	2F\	-son	.	2A\	-son	.	2f\	-son	.	2cc\	-son
!	!	!	!	!	!	!	!	!	!	!	!	!	!	!LO:LB:g=original	!
=7	=7	=7	=7	=7	=7	=7	=7	=7	=7	=7	=7	=7	=7	=7	=7
4.G/	4E\	Ky-	(4cc/	4g\	4E\	Ky-	.	4.G\	Ky-	.	4g\	Ky-	.	4cc\	Ky-
.	4C\	.	4bn/ 4g/)	4rcyy	4C\	-ri-	.	.	.	.	4g\	-ri-	.	4bn\	-ri
8c/	.	-ri-	.	.	.	.	.	8c\	-ri-	.	.	.	.	.	.
4c/	4F\	-e	4b-X/ 4g/	2rcyy	4F\	-e	.	4c\	-e	.	4g\	-e	.	(4b-X\	e-
4c/	4A\	e-	4a/ 4f/	.	4A\	e-	.	4c\	e-	.	4f\	e-	.	4a\)	.
*	*	*	*v	*v	*	*	*	*	*	*	*	*	*	*	*
!LO:LB:g=original	!	!	!	!	!	!	!	!	!	!LO:LB:g=original	!	!	!	!
=8	=8	=8	=8	=8	=8	=8	=8	=8	=8	=8	=8	=8	=8	=8
4c/	4c\	-lej-	4a/ 4f/	4c\	-lej-	.	4c\	-lej-	.	4f\	-lej-	.	4a/	-lej-
4c\	4C\	-son	4g/ 4e/	4C/	-son	.	4c\	-son	.	4e\	-son	.	4g/	-son
4.c\	4.C\	Ky-	2r	4.C/	Ky-	.	4.c\	Ky-	.	2r	.	.	2r	.
8c\	8C\	-ri-	.	8C/	-ri-	.	8c\	-ri-	.	.	.	.	.	.
=9	=9	=9	=9	=9	=9	=9	=9	=9	=9	=9	=9	=9	=9	=9
[>1c/	[>1C\	-e	4r	[>1C/	-e	.	[1c\	-e	.	4r	.	.	4r	.
.	.	.	4g/ 4e/	.	.	.	.	.	.	(4e\	e-	.	(4g/	e-
.	.	.	4b-/ 4g/	.	.	.	.	.	.	4g\	.	.	4b-/	.
.	.	.	4a/ 4f/	.	.	.	.	.	.	4f\)	-e-	.	4a/)	.
=10	=10	=10	=10	=10	=10	=10	=10	=10	=10	=10	=10	=10	=10	=10
4c\]	4C\]	.	4a/ 4f/	4C/]	.	.	4c\]	.	.	4f\	-lej-	.	4a/	-lej.-
4r	4r	.	4g/ 4e/	4r	.	.	4r	.	.	4e\	-son	.	4g/	-son
4.c\	4.C\	Ky-	2r	4.C/	Ky-	.	4.c\	Ky-	.	2r	.	.	2r	.
8c\	8C\	-ri	.	8C/	-ri-	.	8c\	-ri-	.	.	.	.	.	.
=11	=11	=11	=11	=11	=11	=11	=11	=11	=11	=11	=11	=11	=11	=11
1c/	1C\	e-	4r	1C/	-e	.	1c\	-e	.	4r	.	.	4r	.
.	.	.	4g/ 4e/	.	.	.	.	.	.	(4e\	e-	.	(4g/	e-
.	.	.	4b-/ 4g/	.	.	.	.	.	.	4g\	.	.	4b-/	.
.	.	.	4a-X/ 4f/	.	.	.	.	.	.	4f\)	-e-	.	4a-X/)	.
!	!	!	!	!	!	!	!	!	!	!	!	!	!LO:LB:g=original	!
=12	=12	=12	=12	=12	=12	=12	=12	=12	=12	=12	=12	=12	=12	=12
2d-X\	2D-X\	-lejson	4a-X/ 4f/	2D-X\	lej-	.	(2d-X\	Ky-	.	4f\	-lej-	.	4a-X/	-lej-
.	.	.	4g/ 4e/	.	.	.	.	.	.	4e\	-son	.	4g/	-son
4e-X\	4C\	Ky-	4a-/ 4e-X/	4C/	.	.	4e-X\	.	.	4e-X\	Ky-	.	4a-/	Ky-
4d-\	4BB-\	-ri-	4b-/ 4e-/	4BB-/	-son	.	4d-\)	-ri	.	4e-\	-ri-	.	4b-X/	-ri-
!	!	!	!	!LO:LB:g=original	!	!	!LO:LB:g=original	!	!	!	!	!	!	!
=13	=13	=13	=13	=13	=13	=13	=13	=13	=13	=13	=13	=13	=13	=13
2c\	2AA-X\	-e	2cc/ 2e-X/	2AA-X/	Ky-	.	2c\	e-	.	2e-X\	-e	.	2cc\	-e
2e-X\	2BB-\	e-	2dd-X/ 2g/	2BB-/	-ri-	.	2e-X\	.	.	2g\	e-	.	2dd-X\	e-
!	!	!	!	!	!	!	!	!	!	!LO:LB:g=original	!	!	!	!
=14	=14	=14	=14	=14	=14	=14	=14	=14	=14	=14	=14	=14	=14	=14
*	*	*	*^	*	*	*	*	*	*	*	*	*	*	*
!LO:SIC:v:s=2e-	!	!	!	!	!	!	!	!	!	!	!	!	!	!	!
2e\	2C\	-lej-	2ee-X/	2a-X/	2C/	-e	.	2e-X\	-lej-	.	(2a-X\	-lej-	.	[2ee-X\	-lej-
2d-X\	2D-X\	-son	8ee-/L	2f\	2D-X/	e-	.	2d-X\	-son	.	2f\)	.	.	8ee-\L]	.
.	.	.	8dd-X/	.	.	.	.	.	.	.	.	.	.	8dd-X\	-son
.	.	.	8cc/J	.	.	.	.	.	.	.	.	.	.	8cc\J	.
.	.	.	8b-/	.	.	.	.	.	.	.	.	.	.	8b-\	e-
=15	=15	=15	=15	=15	=15	=15	=15	=15	=15	=15	=15	=15	=15	=15	=15
2c\	1E-X\	lej-	4b-/	2e-X\	(2E-X\	-lej-	.	(2c\	lej-	.	2e-X\	.	.	4b-\	-lej-
.	.	.	2a-X/	.	.	.	.	.	.	.	.	.	.	(2a-X/	.
2B-\	.	.	.	2d-X\	2B-\)	.	.	2d-X\	.	.	2d-X\	.	.	.	.
.	.	.	4g/	.	.	.	.	.	.	.	.	.	.	4g/)	.
*v	*v	*	*	*	*	*	*	*	*	*	*	*	*	*	*
*	*	*v	*v	*	*	*	*	*	*	*	*	*	*	*
!LO:LB:g=original	!	!	!	!	!	!	!	!	!	!	!	!	!
=16	=16	=16	=16	=16	=16	=16	=16	=16	=16	=16	=16	=16	=16
4AA-X/	-son	4a-X/ 4c/	4A-X\	-son	.	4c\)	-son	.	4c\	-son	.	4a-X/	-son
4r	.	4cc/ 4c/	4r	.	.	4r	.	.	4c\	Chri-	.	4cc\	Chri-
2r	.	4cc/ 4c/	2r	.	.	2r	.	.	4c\	-ste	.	4cc\	-ste
.	.	4cc/ 4c/	.	.	.	.	.	.	4c\	e-	.	4cc\	e-
!	!	!	!	!	!	!	!	!	!	!	!	!LO:LB:g=original	!
=17	=17	=17	=17	=17	=17	=17	=17	=17	=17	=17	=17	=17	=17
*	*	*^	*	*	*	*	*	*	*	*	*	*	*
4r	.	1cc/	2c/	4r	.	.	4r	.	.	1c\	-lej-	.	1cc\	-lej-
4c\ 4A-X\	Chri-	.	.	4A-X\	Chri-	.	4c\	Chri-	.	.	.	.	.	.
4B-\ 4G\	-ste	.	2ryy	4G\	-ste	.	4B-X\	-ste	.	.	.	.	.	.
4A-\ 4F\	e-	.	.	4F\	e-	.	4A-X\	e-	.	.	.	.	.	.
*	*	*v	*v	*	*	*	*	*	*	*	*	*	*	*
=18	=18	=18	=18	=18	=18	=18	=18	=18	=18	=18	=18	=18	=18
4A-X\ 4F\	-lej-	4cc/ 4c/	4F\	-lej-	.	4A-X\	-lej-	.	4c\	-son	.	4cc\	-son
4G\ 4E\	-son	4cc/ 4c/	4E\	-son	.	4G\	-son	.	4c\	Chri-	.	4cc\	Chri-
2r	.	4dd-X/ 4d-X/	2r	.	.	2r	.	.	4d-X\	-ste	.	4dd-X\	-ste
.	.	4cc/ 4c/	.	.	.	.	.	.	4c\	e-	.	4cc\	e-
!	!	!	!	!	!	!LO:LB:g=original	!	!	!	!	!	!	!
=19	=19	=19	=19	=19	=19	=19	=19	=19	=19	=19	=19	=19	=19
4r	.	1cc/ 1c/	4r	.	.	4r	.	.	1c\	-lej-	.	1cc\	-lej-
4c\ 4A-X\	Chry-	.	4A-X\	Chri-	.	4c\	Chri-	.	.	.	.	.	.
4B-\ 4G\	-ste	.	4G\	-ste	.	4B-X\	-ste	.	.	.	.	.	.
4A-\ 4F\	e-	.	4F\	e-	.	4A-X\	e-	.	.	.	.	.	.
!	!	!	!LO:LB:g=original	!	!	!	!	!	!	!	!	!	!
=20	=20	=20	=20	=20	=20	=20	=20	=20	=20	=20	=20	=20	=20
*	*	*^	*	*	*	*	*	*	*	*	*	*	*
4A-X\ 4F\	-lej-	4cc/	4c/	4F\	-lej-	.	4A-X\	-lej-	.	4c\	-son	.	4cc\	-son
4G\ 4E\	-son	4r	4ryy	4E\	-son	.	4G\	-son	.	4r	.	.	4r	.
4.G\ 4.BB-\	Ky-	4.dd-X/	4f/	4.BB-/	Ky-	.	4.G\	Ky-	.	4.f\	Ky-	.	4.dd-X\	Ky-
.	.	.	4ryy	.	.	.	.	.	.	.	.	.	.	.
8G\ 8BB-\	-ri-	8dd-/ 8f/	.	8BB-/	-ri-	.	8G\	-ri-	.	8f\	-ri-	.	8dd-\	-ri-
*	*	*v	*v	*	*	*	*	*	*	*	*	*	*	*
!	!	!	!	!	!	!	!	!	!LO:LB:g=original	!	!	!	!
=21	=21	=21	=21	=21	=21	=21	=21	=21	=21	=21	=21	=21	=21
4G\ 4C\	-e	4cc/ 4e/	4C/	-e	.	4G\	-e	.	4e\	-e	.	4cc\	-e
4G\ 4C\	e-	4cc/ 4e/	4C/	e-	.	4G\	e-	.	4e\	e-	.	4cc\	e-
2G\ 2BB-X\	-lej-	2dd-X/ 2f/	2BB-X/	-lej-	.	2G\	-lej-	.	2f\	-lej-	.	2dd-X\	-lej-
=22	=22	=22	=22	=22	=22	=22	=22	=22	=22	=22	=22	=22	=22
*^	*	*	*	*	*	*	*	*	*	*	*	*	*
4G\	4C\	-son	4cc/ 4e/	4C/	-son	.	4G\	-son	.	4e\	-son	.	4cc\	-son
4r	4ryy	.	4r	4r	.	.	4r	.	.	4r	.	.	4r	.
2c\	2AA\	Chris-	2ff/ 2f/	2AA/	Chri-	.	2c\	Chri-	.	2f\	Chris-	.	2ff\	Chris-
!	!	!	!	!	!	!	!	!	!	!	!	!	!LO:LB:g=original	!
=23	=23	=23	=23	=23	=23	=23	=23	=23	=23	=23	=23	=23	=23	=23
2d\	2BB-\	-ste	2dd/ 2f/	2BB-/	-ste	.	2d\	-ste	.	2f\	-te	.	2dd\	-ste
2f\	2F\	e-	2cc/ 2a/	2F\	e-	.	2f\	e-	.	2a\	e-	.	2cc\	e-
=24	=24	=24	=24	=24	=24	=24	=24	=24	=24	=24	=24	=24	=24	=24
*	*	*	*^	*	*	*	*	*	*	*	*	*	*	*
2f\	2BB-\	-lej-	2dd/	2b-\	2BB-/	-lej-	.	2f\	-lej-	.	2b-\	-lej-	.	2dd\	-lej-
4f\	4F\	-son	4cc/ 4a/	2ryy	4F\	-son	.	4f\	-son	.	4a\	-son	.	4cc\	-son
4d\	4BB-\	e-	4b-/ 4g/	.	4BB-/	e-	.	4d\	e-	.	4g\	e-	.	4b-\	e-
*	*	*	*v	*v	*	*	*	*	*	*	*	*	*	*	*
=25	=25	=25	=25	=25	=25	=25	=25	=25	=25	=25	=25	=25	=25	=25
2c\	1C\	-lej-	2a/ 2f/	1C/	-lej-	.	(2c\	-lei-	.	(2f\	-lej-	.	(2a/	-lej-
2B-\	.	.	2g/ 2e/	.	.	.	2B-\)	.	.	2e\)	.	.	2g/)	.
!LO:LB:g=original	!	!	!	!	!	!	!LO:LB:g=original	!	!	!	!	!	!	!
=26	=26	=26	=26	=26	=26	=26	=26	=26	=26	=26	=26	=26	=26	=26
*	*	*	*^	*	*	*	*	*	*	*	*	*	*	*
4A\	4F\	-son	4f/	4c\	4F\	-son	.	4A\	-son	.	4c\	-son	.	4f/	-son
4r	4ryy	.	8a/L	4r	4r	.	.	4r	.	.	4r	.	.	8a/	Ky-
.	.	.	8a/J	.	.	.	.	.	.	.	.	.	.	8a/	-ri-
2r	2ryy	.	4b-/	2r	2r	.	.	2r	.	.	2r	.	.	4b-/	-e
.	.	.	4bn/	.	.	.	.	.	.	.	.	.	.	4bn/	e-
!	!	!	!	!	!LO:LB:g=original	!	!	!	!	!	!LO:LB:g=original	!	!	!	!
=27	=27	=27	=27	=27	=27	=27	=27	=27	=27	=27	=27	=27	=27	=27	=27
4r	4r	.	1cc/	4r	4r	.	.	4r	.	.	4r	.	.	1cc\	-lej-
4c\	4C\	Chri-	.	4e\	4C/	Chri-	.	4c\	Chri-	.	4e\	Chri-	.	.	.
4c\	4D\	-ste	.	4f\	4D/	-ste	.	4c\	-ste	.	4f\	-ste	.	.	.
4c\	4E\	e-	.	4g\	4E/	e-	.	4c\	e-	.	4g\	e-	.	.	.
=28	=28	=28	=28	=28	=28	=28	=28	=28	=28	=28	=28	=28	=28	=28	=28
4c\	4F\	-lei-	4cc/	4a\	4F\	-lej-	.	4c\	-lej-	.	4a\	-lej-	.	4cc\	-son
4c\ 4A\	4F\	-son	8a/L	4f\	4F\	-son	.	4A\	-son	.	4f\	-son	.	4a\	Chri-
.	.	.	8a/J	.	.	.	.	.	.	.	.	.	.	.	.
2r	2ryy	.	4b-/	2r	2r	.	.	2r	.	.	2r	.	.	4b-\	-ste
.	.	.	4bn/	.	.	.	.	.	.	.	.	.	.	4bn\	e-
!	!	!	!	!	!	!	!	!	!	!	!	!	!	!LO:LB:g=original	!
=29	=29	=29	=29	=29	=29	=29	=29	=29	=29	=29	=29	=29	=29	=29	=29
4r	4r	.	1cc/	4r	4r	.	.	4r	.	.	4r	.	.	1cc\	-lej-
4c\	4C\	/Chri-	.	4e\	4C/	Chri-	.	4c\	Chri-	.	4e\	Chri-	.	.	.
4c\	4D\	-ste	.	4f\	4D/	-ste	.	4c\	-ste	.	4f\	-ste	.	.	.
4c\	4E\	e-	.	4g\	4E/	e-	.	4c\	e-	.	4g\	e-	.	.	.
=30	=30	=30	=30	=30	=30	=30	=30	=30	=30	=30	=30	=30	=30	=30	=30
4c\	4F\	-lei-	4a/	4a\	4F\	-lej-	.	4c\	-lej-	.	4a\	-lej-	.	4a\	-son
4A\	4F\	-son/	4r	4f\	4F\	-son	.	4A\	-son	.	4f\	-son	.	4r	.
2A\	2D\	Chri-	2ff/ 2a/	2rgyy	2D\	Chri-	.	2A\	Chris-	.	2a\	Chri-	.	2ff\	Chris-
*	*	*	*v	*v	*	*	*	*	*	*	*	*	*	*	*
=31	=31	=31	=31	=31	=31	=31	=31	=31	=31	=31	=31	=31	=31	=31
2c#X\	2A\	-ste	2ee/ 2g/	2A\	-ste	.	2c#X\	-te	.	2g\	-ste	.	2ee\	-te
2d\	2B-\	e-	2dd/ 2f/	2B-\	a-	.	2d\	e-	.	2f\	e-	.	2dd\	e-
!	!	!	!	!	!	!	!LO:LB:g=original	!	!	!	!	!	!	!
=32	=32	=32	=32	=32	=32	=32	=32	=32	=32	=32	=32	=32	=32	=32
2f\	2F\	-lej-	2cc/ 2a/	2F\	-lej-	.	2f\	-lej-	.	2a\	-lej-	.	2cc\	-lej-
4A\	4D\	-son	4dd/ 4f#X/	4D\	-son	.	4A\	-son	.	4f#X\	-son	.	4dd\	-son
4A\	4D\	e-	4dd/ 4f#/	4D\	e-	.	4A\	e-	.	4f#\	e-	.	4dd\	e-
!	!	!	!	!LO:LB:g=original	!	!	!	!	!	!	!	!	!	!
=33	=33	=33	=33	=33	=33	=33	=33	=33	=33	=33	=33	=33	=33	=33
*	*	*	*^	*	*	*	*	*	*	*	*	*	*	*
2d\	2GG\	-lej-	4b-/ 4g/	2reyy	(2GG/	-lej-	.	2d\	-lej-	.	(4g\	-lej-	.	(4b-/	-lej-
.	.	.	4a/ 4fn/	.	.	.	.	.	.	.	4fn\)	.	.	4a/	.
4c\	2C\	.	4g/	2e\	2C/)	.	.	(4c\	.	.	2e\	.	.	4g/	.
4B-\	.	.	4cc/	.	.	.	.	4B-\)	.	.	.	.	.	4cc\)	.
*	*	*	*v	*v	*	*	*	*	*	*	*	*	*	*	*
!	!	!	!	!	!	!	!	!	!	!LO:LB:g=original	!	!	!	!
=34	=34	=34	=34	=34	=34	=34	=34	=34	=34	=34	=34	=34	=34	=34
4A/	4FF\	-son	4cc/ 4f/	4FF/	-son	.	4A\	-son	.	4f\	-son	.	4cc\	-son
4r	8F\L	Ky-	4r	8F\	Ky-	.	4r	.	.	4r	.	.	4r	.
.	8F\J	-ri-	.	8F\	-ri-	.	.	.	.	.	.	.	.	.
2r	4E\	-e	2r	4E\	-e	.	2r	.	.	2r	.	.	2r	.
.	4D\	e-	.	4D\	e-	.	.	.	.	.	.	.	.	.
!LO:LB:g=original	!	!	!	!	!	!	!	!	!	!	!	!	!LO:LB:g=original	!
=35	=35	=35	=35	=35	=35	=35	=35	=35	=35	=35	=35	=35	=35	=35
4r	1C\	-lej-	4r	1C/	-lej-	.	4r	.	.	4r	.	.	4r	.
4B-/	.	.	4g/ 4e/	.	.	.	4B-\	Chri-	.	4e\	Chri-	.	4g/	Chri-
4A/	.	.	4a/ 4f/	.	.	.	4A\	-ste	.	4f\	-ste	.	4a/	-ste
4G/	.	.	4b-/ 4g/	.	.	.	4G\	e-	.	4g\	e-	.	4b-/	e-
=36	=36	=36	=36	=36	=36	=36	=36	=36	=36	=36	=36	=36	=36	=36
4A/	4FF\	-son	4a/ 4f/	4FF/	-son	.	4A\	-lej-	.	4f\	-lej-	.	4a/	-lej-
4F/	8F\L	Ky-	4cc/ 4a/	8F\	Ky-	.	4F\	-son	.	4a\	-son	.	4cc/	-son
.	8F\J	-ri-	.	8F\	-ri-	.	.	.	.	.	.	.	.	.
2r	4E\	-e	2r	4E\	-e	.	2r	.	.	2r	.	.	2r	.
.	4D\	e-	.	4D\	e-	.	.	.	.	.	.	.	.	.
=37	=37	=37	=37	=37	=37	=37	=37	=37	=37	=37	=37	=37	=37	=37
4r	1C\	-lej-	4r	1C/	-lej-	.	4r	.	.	4r	.	.	4r	.
4B-/	.	.	4g/ 4e/	.	.	.	4B-\	Chri-	.	4e\	Chri-	.	4g/	e-
4A/	.	.	4cc/ 4f/	.	.	.	4A\	-ste	.	4f\	-ste	.	4cc/	-le-
4G/	.	.	4b-/ 4e/	.	.	.	4G\	e-	.	4e\	e-	.	4b-/	-i-
!	!	!	!	!	!	!	!LO:LB:g=original	!	!	!	!	!	!	!
=38	=38	=38	=38	=38	=38	=38	=38	=38	=38	=38	=38	=38	=38	=38
*	*	*	*^	*	*	*	*	*	*	*	*	*	*	*
4A/	4FF\	-son	4a/	4f\	4FF/	-son	.	4A\	-lej-	.	4f\	-lej-	.	4a/	-son
4c/	4r	.	4r	4a\	4r	.	.	4c\	-son	.	4a\	-son	.	4r	.
4.d\	4.C\	Ky-	4.ff/	4.a\	4.D\	Ky-	.	4.d\	Ky-	.	4.a\	Ky-	.	4.ff\	Ky-
!LO:N:vis=4	!	!	!	!	!	!	!	!	!	!	!	!	!	!	!
8d\	8D\	-ri-	8ff/	8a\	8D\	-ri-	.	8d\	-ri-	.	8a\	-ri-	.	8ff\	-ri-
*	*	*	*v	*v	*	*	*	*	*	*	*	*	*	*	*
!	!	!	!	!LO:LB:g=original	!	!	!	!	!	!	!	!	!	!
=39	=39	=39	=39	=39	=39	=39	=39	=39	=39	=39	=39	=39	=39	=39
4c#X\	4A\	-e	4ee/ 4a/	4A\	-e	.	4c#X\	-e	.	4a\	-e	.	4ee\	-e
4r	4ryy	.	4r	4r	.	.	4r	.	.	4r	.	.	4r	.
4.cn\	4C\	Ky-	4.ee-X/ 4.g/	4.C/	Ky-	.	4.cn\	Ky-	.	4.g\	Ky-	.	4.ee-X\	Ky-
.	8ryy	.	.	.	.	.	.	.	.	.	.	.	.	.
!LO:TX:t=P:problem:brak laski	!	!	!	!	!	!	!	!	!	!	!	!	!	!
8c\	8C\	-ri-	8ee-/ 8g/	8C/	-ri-	.	8c\	-ri-	.	8g\	-ri-	.	8ee-\	-ri-
!	!	!	!	!	!	!	!	!	!	!LO:LB:g=original	!	!	!LO:LB:g=original	!
=40	=40	=40	=40	=40	=40	=40	=40	=40	=40	=40	=40	=40	=40	=40
4Bn\	4G\	-e	4dd/ 4g/	4G\	-e	.	4Bn\	-e	.	4g\	-e	.	4dd\	-e
4r	4ryy	.	4r	4r	.	.	4r	.	.	4r	.	.	4r	.
4.B-X\	4.BB-\	Ky-	4.dd-X/ 4.f/	4.BB-/	Ky-	.	4.B-X\	Ky-	.	4.f\	Ky-	.	4.dd-X\	Ky-
!LO:N:vis=4	!	!	!	!	!	!	!	!	!	!	!	!	!	!
8B-\	8BB-\	-ri-	8dd-/ 8f/	8BB-/	-ri-	.	8B-\	-ri	.	8f\	-ri-	.	8dd-\	-ri-
=41	=41	=41	=41	=41	=41	=41	=41	=41	=41	=41	=41	=41	=41	=41
!LO:TX:t=P:problem:brak laski	!	!	!	!	!	!	!	!	!	!	!	!	!	!
4c\	4AA\	-e	4cc/ 4f/	4AA/	-e	.	(4c\	e-	.	4f\	-e	.	4cc\	-e
!LO:TX:t=P:problem:brak laski	!	!	!	!	!	!	!	!	!	!	!	!	!	!
4d\	4BB-\	e-	4b-/ 4g/	4BB-/	e-	.	4d\)	.	.	4g\	e-	.	4b-\	e-
4c/	2C\	-lej-	4a/ 4f/	2C/	-lej-	.	(4c\	-lej-	.	4f\	-lej-	.	4a\	-le-
4B-/	.	.	4g/ 4e/	.	.	.	4B-\)	.	.	4e\	.	.	4g\	-j-
=42	=42	=42	=42	=42	=42	=42	=42	=42	=42	=42	=42	=42	=42	=42
*	*	*	*^	*	*	*	*	*	*	*	*	*	*	*
4A/	4FF\	-son	4f/	4f\	4FF/	-son	.	4A\	-son	.	4f\	-son	.	4f/	-son
4ryy	8F\L	Ky-	4r	4ryy	8F\	Ky-	.	4r	.	.	4r	.	.	4r	.
.	8F\J	-ri-	.	.	8F\	-ri-	.	.	.	.	.	.	.	.	.
2ryy	4F\	-e	4r	2rcyy	4F\	-e	.	2r	.	.	4r	.	.	4r	.
.	4F\	e-	4a/ 4f/	.	4F\	e-	.	.	.	.	4f\	e-	.	4a/	e-
*	*	*	*v	*v	*	*	*	*	*	*	*	*	*	*	*
!LO:LB:g=original	!	!	!	!	!	!	!LO:LB:g=original	!	!	!	!	!	!	!
=43	=43	=43	=43	=43	=43	=43	=43	=43	=43	=43	=43	=43	=43	=43
4.c/	4F\	-lej-	1b-/ 1g/	(4F\	-lej-	.	4.c\	Ky-	.	1g\	-lej-	.	1b-\	-lej-
.	8E\L	.	.	8E\L	.	.	.	.	.	.	.	.	.	.
8c/	8D\J	.	.	8D\J	.	.	8c\	-ri-	.	.	.	.	.	.
4c/	4C\	.	.	4C\	.	.	4c\	-e	.	.	.	.	.	.
4c/	8D\L	.	.	8D\L	.	.	4c\	e-	.	.	.	.	.	.
.	8E\J	.	.	8E\J)	.	.	.	.	.	.	.	.	.	.
!	!	!	!	!LO:LB:g=original	!	!	!	!	!	!	!	!	!	!
=44	=44	=44	=44	=44	=44	=44	=44	=44	=44	=44	=44	=44	=44	=44
*	*	*	*^	*	*	*	*	*	*	*	*	*	*	*
4c/	4F\	-son	4a/	4f\	4F\	-son	.	4c\	-lej-	.	4f\	-son	.	4a/	-son
4A/	4r	.	4r	8f\L	4r	.	.	4A\	-son	.	8f\	Ky-	.	4r	.
.	.	.	.	8f\J	.	.	.	.	.	.	8f\	-ri-	.	.	.
2rC	4rG	.	4r	4f\	2r	.	.	4r	.	.	4f\	-e	.	4r	.
.	4A/	.	4f/	4f\	.	.	.	4A\	e-	.	4f\	e-	.	4f/	e-
!	!	!	!	!	!	!	!	!	!	!	!LO:LB:g=original	!	!	!LO:LB:g=original	!
=45	=45	=45	=45	=45	=45	=45	=45	=45	=45	=45	=45	=45	=45	=45	=45
1B-/	4r	.	1g/	4f\	4r	.	.	1B-\	-lej-	.	(4f\	-lej-	.	1g/	-lej-
.	4C\	e-	.	8e\L	4C/	e-	.	.	.	.	8e\L	.	.	.	.
.	.	.	.	8d\J	.	.	.	.	.	.	8d\J	.	.	.	.
.	2C\	-lej-	.	4c\	2C/	-lej-	.	.	.	.	4c\	.	.	.	.
.	.	.	.	8d\L	.	.	.	.	.	.	8d\L	.	.	.	.
.	.	.	.	8e\J	.	.	.	.	.	.	8e\J)	.	.	.	.
=46	=46	=46	=46	=46	=46	=46	=46	=46	=46	=46	=46	=46	=46	=46	=46
4A/	4F\	-son	4f/	4f\	4F\	-son	.	4A\	-son	.	4f\	-son	.	4f/	-son
4ryy	8c\L 8F\	Ky-	8a/L 8f/	4reyy	8F\	Ky-	.	8c\	Ky-	.	8f\	Ky-	.	8a/	Ky-
.	8c\J 8F\	-ri-	8a/J 8f/	.	8F\	-ri-	.	8c\	-ri-	.	8f\	-ri-	.	8a/	-ri-
2ryy	4c\ 4F\	-e	4a/ 4f/	2reyy	4F\	-e	.	4c\	-e	.	4f\	-e	.	4a/	-e
.	4c\ 4F\	e-	4a/ 4f/	.	4F\	e-	.	4c\	e-	.	4f\	e-	.	4a/	e-
*	*	*	*v	*v	*	*	*	*	*	*	*	*	*	*	*
=47	=47	=47	=47	=47	=47	=47	=47	=47	=47	=47	=47	=47	=47	=47
1c/	2F\	-lej-	1a/ 1f/	2F\	-lej-	.	1c\	-lej-	.	(1f\	-lej-	.	1a/	-lej-
.	4C\	.	.	(4C/	.	.	.	.	.	.	.	.	.	.
.	4AA\	.	.	4AA/)	.	.	.	.	.	.	.	.	.	.
=48	=48	=48	=48	=48	=48	=48	=48	=48	=48	=48	=48	=48	=48	=48
4A\	8FF\	-son	4f/ 4c/	4FF/	-son	.	4A\	-son.	.	4c\)	-son	.	4f/	-son
.	8ryy	.	.	.	.	.	.	.	.	.	.	.	.	.
4r	4ryy	.	4r	4r	.	.	4r	.	.	4r	.	.	4r	.
2r;	2ryy	.	2r;	2r;	.	.	2r	.	.	2r;	.	.	2r;	.
*v	*v	*	*	*	*	*	*	*	*	*	*	*	*	*
==	==	==	==	==	==	==	==	==	==	==	==	==	==
*-	*-	*-	*-	*-	*-	*-	*-	*-	*-	*-	*-	*-	*-
!!!system-decoration: [(s1,s2,s3,s4)][(s5,s6)]
!!!RDF**kern: > = above
!!!RDF**kern: < = below
!!!EED: Leszek Kubiak
!!!EST: 2021-01-25
!!!ENC: Marcin Jachim
!!!END: 2021-01-09
